X:1
T:Elslein
T:bearbeitet von Carl Thiel (1862-1939)
T:Volkslied, 1534 aufgezeichnet
T:Elslein
T:CPDL - Creative Commons Attribution Non Commercial 3.0
T:CPDL - Creative Commons Attribution Non Commercial 3.0
C:Carl Thiel
Z:CPDL - Creative Commons Attribution Non Commercial 3.0
%%score [ 1 2 3 4 ]
L:1/8
Q:1/4=100
M:3/4
K:Bb
V:1 treble nm="Sopran"
V:2 treble nm="Alt"
V:3 treble-8 nm="Tenor"
V:4 bass nm="Bass"
V:1
!p!"^Nicht zu langsam (-104)" G2 | G4 B2 |!<(! A4 G2!<)! | ((A3!>(! B) c2) | d4!>)!!<(! d2 | %5
w: 1.~Ach|Els- lein,|lie- bes|El- * se-|lein, wie|
 c4!<)! A2 | B2!>(! G4!>)! | F4 |!mf! F2 |!<(! (A2 A2) B2!<)! | c4 B2 | (G3!>(! A B2)!>)! | A4 G2 | %13
w: gern wär|ich bei|dir!|So|rin- nen zwei|tie- fe|Was- * *|ser wohl|
!<(! F2 D4!<)! | G4!>(! F2 | G4!>)! | F2 |!<(! (A2 A2) B2!<)! | c4 B2 | (G3 A!>(! B2) | %20
w: zwi- schen|dir und|mir,|so|rin- nen zwei|tie- fe|Was- * *|
 A4!>)!"^dim." G2 | F2 D4 |"^rit."!>(! G4 ^F2!>)! |!pp! !fermata!G4 |] %24
w: ser wohl|zwi- schen|dir und|mir.|
V:2
!p! D2 | D4 G2 | E4 G2 | ((G2 ^F2) G2) | ^F4 G2 | G4 =F2 | F4 =E2 | F4 |!mf! F2 | (F2 F2) F2 | %10
w: 2.~Das|bringt mir|gro- ße|Schmer- * *|zen, herz-|al- ler-|liebs- ter|Gsell!|Red|ich _ von|
 F4 F2 | (E4 F2) | F4 D2 | D2 D4 | C4 CD | =E4 | F2 | (F2 F2) F2 | F4 F2 | (F2 E2 D2) | F4 ED | %21
w: gan- zem|Her- *|zen, habs|für groß|Un- ge- *|fäll,|red|ich _ von|gan- zem|Her- * *|zen, habs _|
 C2 (B,2 D2) | E4 D2 |!pp! !fermata!D4 |] %24
w: für groß _|Un- ge-|fäll.|
V:3
!p! GA | (B3 c) d2 | c4 B2 | (d4 G2) | A4 B2 | c4 c2 | B2 c4 | A4 |!mf! AB | (c2 c2) d2 | c4 d2 | %11
w: 3.~Hoff, _|Zeit _ wird|es wohl|en- *|den, hoff,|Glück wird|kom- men|drein,|sich _|in _ alls|Guts ver-|
 (B2 e2 d2) | c4!<(! B2- | BA B2 A2!<)! | (G2 AB) A2 | c4 | AB | (c2 c2) B2 | (F2 e2) d2 | %19
w: wen- * *|den, herz-|* * liebs- tes|El- * * se-|lein,|sich _|in _ alls|Guts _ ver-|
 (B2!<(! c2 B2!<)! | d3) c B2- | BA B2 A2 | (B2 c2) A2 |!pp! !fermata!=B4 |] %24
w: wen- * *|* den, herz-|* * liebs- tes|El- * se-|lein.|
V:4
!p! G,2 | G,4 G,2 | (C,3 D,) E,2 | (D,4 E,2) | D,4 G,2 | =E,4 F,2 | G,2 C,4 | F,4 |!mf! F,2 | %9
 (F,3 E,) D,2 | A,,4 B,,2 | (E,2 C,2 D,E,) | F,4 G,2 |!<(! (D,2 G,2) F,2!<)! | =E,4 F,2 | C,4 | %16
 F,2 | (F,3 E,) D,2 | A,,4 B,,2 | (E,2 C,2 G,2) | D,4 E,2 | (F,2 G,2) F,2 | (E,2 C,2) D,2 | %23
!pp! !fermata!G,,4 |] %24

